X:38
T:Tyrolese Waltz
O:No 38 Wm Clarke of Feltwell  MS 1858
N:Middle of page
I:abc2nwc
M:3/4
L:1/8
K:G
D3/2D/2|G3/2G/2 B3/2B/2 d3/2d/2|b2g2g3/2g/2|a2c'2f3/2f/2|
g2b2D2|G3/2G/2 B3/2B/2 d3/2d/2|b2g2g3/2g/2|a2c'2f3/2f/2|g4:|
|:d3/2d/2|f2a2d3/2d/2|g2b2d3/2d/2|f2a2d3/2d/2|g2b2D3/2D/2|
G3/2G/2 B3/2B/2 d3/2d/2|b2g2g3/2g/2|a2c'2f3/2f/2|g4:||:

